packages/icons/svg/Outline/toggle-left.svg

<svg fill="none" height="24" viewBox="0 0 24 24" width="24" xmlns="http://www.w3.org/2000/svg"><path clip-rule="evenodd" d="m9 13c-.552 0-1-.448-1-1s.448-1 1-1 1 .448 1 1-.448 1-1 1zm-.00002-4.00007c-1.654 0-3 1.34597-3 2.99997s1.346 3 3 3c1.65402 0 3.00002-1.346 3.00002-3s-1.346-2.99997-3.00002-2.99997zm6.00002 8.00017h-5.99998c-2.757 0-5-2.243-5-5 0-2.75704 2.243-5.00004 5-5.00004h5.99998c2.757 0 5 2.243 5 5.00004 0 2.757-2.243 5-5 5zm0-12.0001h-6c-3.859 0-7 3.141-7 7s3.141 7 7 7h6c3.859 0 7-3.141 7-7s-3.141-7-7-7z" fill="#6b7280" fill-rule="evenodd"/></svg>

<svg width="24" height="24" viewBox="0 0 24 24" fill="none" xmlns="http://www.w3.org/2000/svg">
<g id="Icon/Outline/toggle-left">
<path id="Mask" fill-rule="evenodd" clip-rule="evenodd" d="M9 13C8.448 13 8 12.552 8 12C8 11.448 8.448 11 9 11C9.552 11 10 11.448 10 12C10 12.552 9.552 13 9 13ZM9 9C7.346 9 6 10.346 6 12C6 13.654 7.346 15 9 15C10.654 15 12 13.654 12 12C12 10.346 10.654 9 9 9ZM15 17H9C6.243 17 4 14.757 4 12C4 9.243 6.243 7 9 7H15C17.757 7 20 9.243 20 12C20 14.757 17.757 17 15 17ZM15 5H9C5.141 5 2 8.141 2 12C2 15.859 5.141 19 9 19H15C18.859 19 22 15.859 22 12C22 8.141 18.859 5 15 5Z" fill="#000000"/>
</g>
</svg>
